X:5013
T:Parting Glass, The
O:england
M:4/4
L:1/4
Q:80
C:Traditional
R:Air
K:Am
"Am"cAAG/2A/2|"C" cc"G"dc/2d/2|"Am"eee/2d/2c/2d/2|"G" eGGe/2d/2|
"Am"cAAG/2A/2|"C" cc"G"dc/2d/2|"Am"ea"G"g/2e/2d/2e/2|"Am"cAA z||
"C"g/2e/2g/2a/2g3/2g/2|"C"g/2e/2g/2a/2g3/2e/2|"Am"fedc/2d/2|"G"eGGe/2d/2
|"Am"cAAG/2A/2|"C" cc"G"dc/2d/2|"Am"ea"G"g/2e/2d/2e/2|"Am" cAA|


